X:298
T: Jia li you ge qian wan luo
N: C0790
O: China,Fujian, Zhangzhou
S: MM, Seite 17, 1]
N: Die Stuecke sind meist uebersteuert, also verzerrt.
N: Vereinzelt Verzierungen.
R: Shange]
M: 2/4
L: 1/16
K: C
d3ed2c2 | d3ed4- | d6e2 | c3de4 | d2c2A4 |
d2d4A2 | G3AG2E2 | D8 |
d6^c2 | A2^c2A4 | G8

@@@ Tune index: 6299
